packages/icons/brands/CoinGecko.svg

<svg width="24" height="24" viewBox="0 0 24 24" xmlns="http://www.w3.org/2000/svg">
<g>
        <g clip-path="url(#clip0_1867_25253)">
            <path
                d="M24.4999 11.9471C24.5103 14.3205 23.8168 16.6437 22.507 18.6228C21.197 20.602 19.3296 22.1484 17.1409 23.0663C14.9522 23.9841 12.5404 24.2324 10.2106 23.7796C7.88082 23.3268 5.7376 22.1933 4.05201 20.5224C2.36642 18.8515 1.21416 16.7184 0.740943 14.3926C0.267729 12.0668 0.494815 9.65298 1.39349 7.4563C2.29216 5.25961 3.82204 3.37875 5.78969 2.05156C7.75733 0.724364 10.0743 0.0104567 12.4477 0.000114088C15.6302 -0.0137537 18.6878 1.23713 20.948 3.4776C23.2083 5.71808 24.4859 8.76463 24.4999 11.9471Z"
                fill="#8DC63F"
            />
            <path
                d="M23.6007 11.9503C23.6107 14.1453 22.9695 16.294 21.7583 18.1246C20.547 19.9552 18.8201 21.3856 16.796 22.2348C14.7719 23.0839 12.5413 23.3138 10.3866 22.8953C8.23175 22.4768 6.24946 21.4287 4.69034 19.8836C3.13123 18.3384 2.06531 16.3657 1.6274 14.2147C1.18949 12.0637 1.39924 9.83131 2.23014 7.79957C3.06104 5.76785 4.47575 4.02815 6.29539 2.80047C8.11503 1.57279 10.2579 0.912269 12.4529 0.902451C15.3961 0.889503 18.224 2.04612 20.3146 4.11792C22.4051 6.18972 23.5872 9.00705 23.6007 11.9503Z"
                fill="#F9E988"
            />
            <path
                d="M12.705 1.62321C13.4105 1.49799 14.1325 1.49799 14.838 1.62321C15.5504 1.736 16.2389 1.9667 16.8754 2.30582C17.5085 2.65365 18.0554 3.12582 18.5998 3.56843C19.1441 4.01104 19.6858 4.46408 20.2015 4.95973C20.7278 5.44766 21.1872 6.00323 21.5676 6.61191C21.9592 7.21577 22.2801 7.86262 22.5241 8.53974C22.9876 9.90147 23.1485 11.3684 22.9172 12.7676H22.8485C22.6163 11.3806 22.3015 10.0589 21.805 8.80147C21.5719 8.1683 21.2977 7.55105 20.9841 6.95365C20.6569 6.35617 20.2963 5.77757 19.9041 5.2206C19.5052 4.65754 19.0164 4.16399 18.4571 3.75973C17.8937 3.35799 17.2458 3.09799 16.6189 2.85104C15.9919 2.60408 15.3702 2.34843 14.7163 2.1606C14.0624 1.97278 13.398 1.83191 12.7041 1.69538L12.705 1.62321Z"
                fill="white"
            />
            <path
                d="M18.1291 8.03303C17.3239 7.79999 16.4891 7.46955 15.6439 7.13564C15.5952 6.92346 15.4074 6.65912 15.0274 6.33651C14.4752 5.85738 13.4378 5.86955 12.5413 6.08172C11.5518 5.84868 10.5744 5.76607 9.6361 5.99477C1.96218 8.10868 6.31349 13.2661 3.49609 18.4504C3.89696 19.3009 8.21784 24.2626 14.47 22.9313C14.47 22.9313 12.3318 17.793 17.157 15.3269C21.0709 13.3191 23.8987 9.60433 18.1291 8.03303Z"
                fill="#8BC53F"
            />
            <path
                d="M19.0779 11.4079C19.0784 11.4999 19.0517 11.59 19.001 11.6668C18.9503 11.7437 18.8779 11.8037 18.7931 11.8393C18.7084 11.8751 18.6149 11.8848 18.5245 11.8673C18.4342 11.8498 18.351 11.806 18.2856 11.7413C18.2202 11.6766 18.1754 11.594 18.157 11.5038C18.1384 11.4138 18.1471 11.3201 18.1819 11.235C18.2166 11.1498 18.2758 11.0767 18.3521 11.0251C18.4283 10.9737 18.5181 10.9458 18.6101 10.9453C18.7334 10.9449 18.8518 10.9933 18.9396 11.08C19.0272 11.1667 19.077 11.2846 19.0779 11.4079Z"
                fill="white"
            />
            <path
                d="M12.542 6.08024C13.1011 6.12024 15.1229 6.77589 15.6446 7.13415C15.2098 5.87328 13.7463 5.70545 12.542 6.08024Z"
                fill="#009345"
            />
            <path
                d="M13.0734 9.26825C13.0736 9.69277 12.9479 10.1077 12.7122 10.4608C12.4765 10.8138 12.1413 11.089 11.7493 11.2516C11.3571 11.4142 10.9255 11.4568 10.5092 11.3741C10.0928 11.2914 9.71038 11.087 9.41012 10.7869C9.10991 10.4869 8.90542 10.1044 8.82255 9.68816C8.73967 9.27181 8.78212 8.84025 8.94453 8.44807C9.10694 8.05587 9.38203 7.72064 9.7349 7.48479C10.0879 7.24893 10.5028 7.12305 10.9273 7.12305C11.2092 7.12293 11.4882 7.17833 11.7486 7.28609C12.0089 7.39385 12.2455 7.55185 12.4448 7.75106C12.6441 7.95027 12.8022 8.1868 12.91 8.44712C13.0179 8.70747 13.0734 8.98651 13.0734 9.26825Z"
                fill="white"
            />
            <path
                d="M12.438 9.28885C12.438 9.58746 12.3495 9.87929 12.1836 10.1276C12.0178 10.3758 11.782 10.5693 11.5061 10.6836C11.2303 10.7978 10.9268 10.8276 10.634 10.7694C10.3412 10.7112 10.0722 10.5674 9.86109 10.3562C9.64996 10.1452 9.50613 9.87616 9.44796 9.58338C9.3897 9.29051 9.41961 8.98703 9.53387 8.7112C9.64804 8.43534 9.84161 8.19958 10.0898 8.03371C10.338 7.86783 10.63 7.7793 10.9285 7.7793C11.3288 7.7793 11.7128 7.93834 11.9959 8.22144C12.279 8.50453 12.438 8.88851 12.438 9.28885Z"
                fill="#58595B"
            />
            <path
                d="M20.8157 12.3556C19.0765 13.5808 17.0991 14.5104 14.2939 14.5104C12.9809 14.5104 12.7148 13.1191 11.847 13.7991C11.3991 14.1521 9.82001 14.9417 8.56696 14.8817C7.31392 14.8217 5.28261 14.0869 4.71653 11.4121C4.49218 14.0869 4.3774 16.0573 3.37305 18.3156C5.37305 21.5182 10.1417 23.9886 14.4704 22.9243C14.0052 19.6765 16.8435 16.4956 18.4426 14.8678C19.0513 14.2512 20.2078 13.2452 20.8157 12.3538V12.3556Z"
                fill="#8BC53F"
            />
            <path
                d="M20.7483 12.4352C20.2083 12.9273 19.5657 13.2917 18.9118 13.6134C18.2499 13.9277 17.5599 14.179 16.851 14.3639C16.1414 14.5473 15.4014 14.6856 14.6518 14.6178C13.9023 14.5499 13.1362 14.2952 12.6396 13.7334L12.6631 13.7065C13.2718 14.1012 13.9744 14.2404 14.6736 14.2604C15.3822 14.2819 16.091 14.2236 16.7866 14.0865C17.4892 13.9393 18.1766 13.7268 18.8396 13.4517C19.5031 13.1778 20.1597 12.8604 20.7249 12.4082L20.7483 12.4352Z"
                fill="#58595B"
            />
        </g>
        <defs>
            <clipPath id="clip0_1867_25253">
                <rect width="24" height="24" fill="white" transform="translate(0.5)" />
            </clipPath>
        </defs>
    </g>
</svg>

<svg xmlns="http://www.w3.org/2000/svg" width="24" height="24">
    <g clip-path="url(#CoinGecko_svg__a)">
        <path fill="#8DC63F" d="M24.5 11.947a12 12 0 1 1-24.001.106 12 12 0 0 1 24-.106Z"/>
        <path fill="#F9E988" d="M23.6 11.95a11.098 11.098 0 1 1-22.195.101 11.098 11.098 0 0 1 22.196-.1Z"/>
        <path fill="#fff" d="M12.705 1.623a6.103 6.103 0 0 1 2.133 0c.712.113 1.4.344 2.037.683.634.348 1.18.82 1.725 1.262.544.443 1.086.896 1.601 1.392a8.125 8.125 0 0 1 1.367 1.652 9.4 9.4 0 0 1 .956 1.928c.464 1.361.624 2.828.393 4.228h-.069c-.232-1.387-.546-2.71-1.043-3.967a15.487 15.487 0 0 0-.82-1.847 18.162 18.162 0 0 0-1.08-1.733 6.286 6.286 0 0 0-1.448-1.461c-.563-.402-1.211-.662-1.838-.909s-1.249-.503-1.903-.69a24.114 24.114 0 0 0-2.012-.466l.001-.072Z"/>
        <path fill="#8BC53F" d="M18.13 8.033c-.806-.233-1.64-.563-2.486-.897-.049-.213-.237-.477-.617-.8-.552-.479-1.59-.466-2.486-.254-.99-.233-1.967-.316-2.905-.087-7.674 2.114-3.323 7.271-6.14 12.455.401.85 4.722 5.813 10.974 4.481 0 0-2.138-5.138 2.687-7.604 3.914-2.008 6.742-5.723.972-7.294Z"/>
        <path fill="#fff" d="M19.078 11.408a.465.465 0 1 1-.93.005.465.465 0 0 1 .93-.005Z"/>
        <path fill="#009345" d="M12.542 6.08c.56.04 2.58.696 3.103 1.054-.435-1.26-1.899-1.429-3.103-1.054Z"/>
        <path fill="#fff" d="M13.073 9.268a2.146 2.146 0 1 1-4.292.002 2.146 2.146 0 0 1 4.292-.002Z"/>
        <path fill="#58595B" d="M12.438 9.289a1.51 1.51 0 1 1-3.02 0 1.51 1.51 0 0 1 3.02 0Z"/>
        <path fill="#8BC53F" d="M20.816 12.356c-1.74 1.225-3.717 2.154-6.522 2.154-1.313 0-1.58-1.39-2.447-.71-.448.352-2.027 1.142-3.28 1.082-1.253-.06-3.284-.795-3.85-3.47-.225 2.675-.34 4.645-1.344 6.904 2 3.202 6.769 5.673 11.097 4.608-.465-3.247 2.373-6.428 3.973-8.056.608-.617 1.765-1.623 2.373-2.514v.002Z"/>
        <path fill="#58595B" d="M20.748 12.435c-.54.492-1.182.857-1.836 1.178-.662.315-1.352.566-2.061.75-.71.184-1.45.323-2.2.255-.749-.068-1.515-.323-2.011-.885l.023-.027c.609.395 1.311.534 2.01.554a9.446 9.446 0 0 0 2.114-.174c.702-.147 1.39-.36 2.053-.634s1.32-.592 1.885-1.044l.023.027Z"/>
    </g>
    <defs>
        <clipPath id="CoinGecko_svg__a">
            <path fill="#fff" d="M0 0h24v24H0z" transform="translate(.5)"/>
        </clipPath>
    </defs>
</svg>
